src/assets/Imgs/profile/seed.svg

<svg fill="none" height="19" viewBox="0 0 19 19" width="19" xmlns="http://www.w3.org/2000/svg"><g fill="#5200ff"><path d="m4.80502 12.7656c.0825-.3675-.0675-.8925-.33-1.155l-1.8225-1.82247c-.57-.57001-.795-1.1775-.63-1.7025.1725-.525.705-.88501 1.5-1.02001l2.34-.39c.3375-.06.75-.36.9075-.6675l1.29-2.5875c.375-.7425.885-1.155 1.44-1.155.55498 0 1.06498.4125 1.43998 1.155l1.29 2.5875c.0975.195.3.3825.5175.51001l-8.07748 8.07747c-.105.105-.285.0075-.255-.1425z" opacity=".4"/><path d="m14.525 11.6101c-.27.27-.42.7875-.33 1.155l.5175 2.2575c.2175.9375.0825 1.6425-.3825 1.98-.1875.135-.4125.2025-.675.2025-.3825 0-.8325-.1425-1.3275-.435l-2.1975-1.305c-.34502-.2025-.91502-.2025-1.26002 0l-2.1975 1.305c-.8325.4875-1.545.57-2.0025.2325-.1725-.1275-.3-.3-.3825-.525l9.12002-9.12004c.345-.345.8325-.5025 1.305-.42l.7575.1275c.795.135 1.3275.495 1.5 1.02.165.525-.06 1.1325-.63 1.7025z"/></g></svg>

<svg width="19" height="19" viewBox="0 0 19 19" fill="none" xmlns="http://www.w3.org/2000/svg">
<g id="Frame">
<path id="Vector" opacity="0.4" d="M4.80502 12.7656C4.88752 12.3981 4.73752 11.8731 4.47502 11.6106L2.65252 9.78813C2.08252 9.21812 1.85752 8.61063 2.02252 8.08563C2.19502 7.56063 2.72752 7.20062 3.52252 7.06562L5.86252 6.67562C6.20002 6.61562 6.61252 6.31562 6.77002 6.00812L8.06002 3.42062C8.43502 2.67812 8.94502 2.26562 9.50002 2.26562C10.055 2.26562 10.565 2.67812 10.94 3.42062L12.23 6.00812C12.3275 6.20312 12.53 6.39062 12.7475 6.51813L4.67002 14.5956C4.56502 14.7006 4.38502 14.6031 4.41502 14.4531L4.80502 12.7656Z" fill="#5200FF"/>
<path id="Vector_2" d="M14.525 11.6101C14.255 11.8801 14.105 12.3976 14.195 12.7651L14.7125 15.0226C14.93 15.9601 14.795 16.6651 14.33 17.0026C14.1425 17.1376 13.9175 17.2051 13.655 17.2051C13.2725 17.2051 12.8225 17.0626 12.3275 16.7701L10.13 15.4651C9.78498 15.2626 9.21498 15.2626 8.86998 15.4651L6.67248 16.7701C5.83998 17.2576 5.12748 17.3401 4.66998 17.0026C4.49748 16.8751 4.36998 16.7026 4.28748 16.4776L13.4075 7.35756C13.7525 7.01256 14.24 6.85506 14.7125 6.93756L15.47 7.06506C16.265 7.20006 16.7975 7.56006 16.97 8.08506C17.135 8.61006 16.91 9.21756 16.34 9.78756L14.525 11.6101Z" fill="#5200FF"/>
</g>
</svg>
